X:1
T:Schwanengesang
T:Ihr Bild
T:9. Ihr Bild
T:Franz Schubert
T:Schwanengesang (D.957)
T:Heinrich Heine
T:OpenScore (CC0)
T:OpenScore (CC0)
C:Franz Schubert
Z:Heinrich Heine
Z:OpenScore (CC0)
%%score 1 { ( 2 4 ) | ( 3 5 ) }
L:1/8
Q:1/4=50
M:2/2
K:Db
V:1 treble nm="Voice"
V:2 treble nm="Piano"
V:4 treble 
V:3 bass 
V:5 bass 
V:1
"^Langsam" z8 | z4 z2 B2 | B3 d c2 B2 | =A4 B2 c2 | G7/2 F/ G7/2 _A/ | F6 z2 | z8 | z4 z2 F2 | %8
w: |Ich|stand in dunk- len|Träu- men und|starrt' ihr Bild- niss|an,||und|
 B3 B c2 B2 | =d4 c2 z2 | e2 =d c d2 c c | B6 z2 | z8 | z4 z2 B2 | B3 B B3 A | A2 _G4 G2 | %16
w: das ge- lieb- te|Ant- litz|heim- lich zu le- ben be-|gann.||Um|ih- re Lip- pen|zog sich ein|
 _c3 c c3 d | B4 z2 B2 | B3 B BA GF | F2 E4 G2 | _c2 c c PcB cd | B4 z4 | z8 | z4 z2 B2 | %24
w: Lä- cheln wun- der-|bar, und|wie von Weh- * muths- *|thrä- nen er-|glänz- te ihr Au- * gen- *|paar.||Auch|
 B3 d c2 B2 | =A4 B2 c2 | G7/2 F/ G2 G3/2 _A/ | F6 z2 | z8 | z4 z2 F2 | B3 B c2 B B | =d4 c2 c c | %32
w: mei- ne Thrä- nen|flos- sen mir|von den Wan- gen her-|ab||und|ach, ich kann es nicht|glau- ben, dass ich|
 e2 =d c d2 c2 | B6 z2 | z8 | !fermata!z8 |] %36
w: dich ver- * lo- ren|hab'.|||
V:2
!pp! B,6 z2 | B,6 z2 | (B,3 D C2 B,2 | =A,4 B,2) (C2 | G,7/2 F,/ G,7/2 _A,/ | F,6) [C=Ac]2 | %6
 [CBc]8 | [C=Ac]6 F2 | ([FB]3"_cresc." [FB] [=Gc]2 [FB]2) |!<(! (=d4 c4)!<)! | %10
!>(! (e2 =dc)!>)! [FBd]2 [EF=Ac]2 | [=DFB]6 B,2 | %12
!<(! ([B,E]2 [B,F][B,=G]!<)!!>(! [B,F]2 [=A,F]2)!>)! | [B,F]6!pp! B2 | B8 | B6 B2 |!>(! _c8!>)! | %17
 B3 z/ .[Bd]/ [GB]2 z2 | B8 |!>(! _c6!>)!!<(! c2!<)! |!>(! _c8!>)! | %21
 [GB]3 z/ .[Bd]/ [GB]2 z3/2 D/ | [=E,B,]6 z3/2 D/ | [F,B,]6 z2 | (B,3 D C2 B,2 | =A,4 B,2) (C2 | %26
 (G,7/2) F,/ G,7/2 _A,/ | F,6) [C=Ac]2 | [CBc]8 | [C=Ac]6 F2 | [FB]3"_cresc." ([FB] [=Gc]2 [FB]2) | %31
!<(! (=d4!<)! c4) |!>(! (e2 =dc!>)! [FBd]2 [EF=Ac]2) | [=DFB]6!f! B,2 | %34
 [E,B,E]2 [F,B,F][_G,B,_G] [F,B,F]2 [F,=A,EF]2 | !fermata![F,B,_DF]8 |] %36
V:3
 B,,6 z2 | B,,6 z2 | (B,,3 D, C,2 B,,2 | =A,,4 B,,2) (C,2 | G,,7/2 F,,/ G,,7/2 _A,,/ | %5
 F,,6) [F,,,F,,]2 | ([G,,,G,,]7/2 [F,,,F,,]/ [G,,,G,,]7/2 [_A,,,_A,,]/ | [F,,,F,,]6) F,2 | %8
 ([=D,B,]3 [D,B,] [E,B,]2 [D,B,]2) | (B,4 =A,2 _A,2) | [=G,C]4 [B,=D]2 [=A,C]2 | %11
 [B,,F,B,]3 (B,, [=A,,B,,]2 [_A,,B,,]2) | ([=G,,B,,]2 [F,,=D,][E,,E,] [F,,D,]2 [F,,E,]2) | %13
 [B,,=D,]6 B,2 | B,8 | B,6 B,2 | [D,A,_C]8 | B,3 z/ .[B,D]/ [G,B,]2 z2 | B,8 | _C6 C2 | [D,A,_C]8 | %21
 [G,B,]3 z/ .[B,D]/ [G,B,]2 z2 | [B,,,G,,B,,]6 z2 | [B,,,F,,B,,]6 z2 |!pp! (B,,3 D, C,2 B,,2 | %25
 =A,,4 B,,2) (C,2 | (G,,7/2) F,,/ G,,7/2 _A,,/ | F,,6) [F,,,F,,]2 | %28
 ([G,,,G,,]7/2 [F,,,F,,]/ [G,,,G,,]7/2 [_A,,,_A,,]/ | [F,,,F,,]6) F,2 | %30
 [=D,B,]3 ([D,B,] [E,B,]2 [D,B,]2) | (B,4 =A,2 _A,2) | (C,2 =D,E,) [F,B,=D]2 [F,=A,C]2 | %33
 [B,,F,B,]3 (B,, [=A,,B,,]2 [_A,,B,,]2) | [_G,,B,,]2 [F,,B,,][E,,B,,] [F,,B,,_D,]2 [F,,C,]2 | %35
 !fermata![B,,,F,,B,,]8 |] %36
V:4
 x8 | x8 | x8 | x8 | x8 | x8 | x8 | x8 | x8 | F8 | [E=G]4 x4 | x8 | x8 | x8 | (B6 _A2) | %15
 (A2!<(! _G4) G2!<)! | (G2 FE F3 A) | G3 x5 | B4- (B!<(!AGF)!<)! | (F2 E4) G2 | (G2 FE F3 A) | x8 | %22
 x8 | x8 | x8 | x8 | x8 | x8 | x8 | x8 | x8 | F8 | [E=G]4 x4 | x8 | x8 | x8 |] %36
V:5
 x8 | x8 | x8 | x8 | x8 | x8 | x8 | x8 | x8 | F,8 | (C,2 =D,E,) F,2 F,2 | x8 | x8 | x8 | %14
 (B,6 _A,2) | (A,2 _G,4) G,2 | x8 | G,3 x5 | B,4- (B,A,G,F,) | (F,2 E,4) [__E,G,]2 | x8 | x8 | x8 | %23
 x8 | x8 | x8 | x8 | x8 | x8 | x8 | x8 | F,8 | [=G,C]4 x4 | x8 | x8 | x8 |] %36

